dist/images/letter-a-calligraphic.svg

<svg width="538" height="450" viewBox="0 0 538 450" fill="none" xmlns="http://www.w3.org/2000/svg">
<path opacity="0.1" fill-rule="evenodd" clip-rule="evenodd" d="M34.093 332.154C36.0083 330.255 36.0083 327.216 34.093 325.317C18.3872 309.742 9.57669 288.849 9.57669 266.437C9.57669 220.473 47.5004 182.866 93.8515 182.866C110.323 182.866 131.392 189.324 145.949 198.82C155.142 204.898 163.57 211.356 171.231 217.814L144.416 268.336C130.626 291.888 112.622 298.346 97.6822 298.346C79.6781 298.346 65.1215 283.911 65.1215 266.057C65.1215 248.203 79.6781 233.768 97.6822 233.768C100.747 233.768 103.811 234.528 106.876 235.288C113.388 236.807 116.836 227.69 109.557 226.171C105.727 225.411 101.896 224.272 97.6822 224.272C74.3151 224.272 55.5448 242.885 55.5448 266.057C55.5448 289.229 74.3151 307.843 97.6822 307.843C123.348 307.843 168.933 299.865 199.195 245.924C211.453 259.979 222.562 274.414 232.905 289.229L207.24 359.885C197.28 384.956 184.639 409.268 158.59 427.501C153.61 430.92 142.501 436.618 130.243 440.797C124.114 442.696 125.646 452.193 133.691 449.534C196.131 427.501 238.651 385.336 259.337 327.596C287.301 368.622 327.523 420.664 408.35 420.664C477.302 420.664 537.827 365.203 537.827 296.826C537.827 216.674 474.621 173.369 414.862 173.369C364.68 173.369 327.906 211.356 327.906 256.181C327.906 299.865 361.233 332.914 405.286 332.914C412.564 332.914 418.693 326.836 418.693 319.619C418.693 312.021 412.564 306.323 405.286 306.323C397.624 306.323 391.878 312.401 391.878 319.619C391.878 320.758 391.878 321.518 392.261 322.658C360.084 316.96 337.483 290.369 337.483 256.56C337.483 216.674 371.959 182.866 414.862 182.866C468.492 182.866 499.137 236.807 499.137 287.71C499.137 350.008 443.592 400.531 380.386 400.531C325.607 400.531 286.918 350.388 263.167 316.58L335.567 115.629C339.015 105.753 342.462 95.8759 346.676 85.9993C375.023 82.5805 406.435 78.7818 408.35 78.7818C413.713 78.402 412.947 70.4247 407.584 70.8046C405.669 71.1845 377.322 73.8435 350.507 76.8825C361.999 51.4313 378.088 27.4996 409.882 11.925C409.116 19.1425 414.479 25.9801 421.757 26.7398C429.036 27.4996 435.931 22.1814 436.697 14.9639C437.463 7.7464 432.1 0.908762 424.822 0.149024C422.907 -0.230844 420.991 0.149024 419.076 0.908762C372.342 17.2431 337.1 44.5937 313.732 81.061C305.688 81.8208 300.325 82.5805 300.325 82.5805C274.66 85.2396 231.373 99.2947 203.792 157.415L175.445 210.596C167.784 204.138 159.739 198.061 150.929 191.983C134.84 181.346 111.856 174.509 93.8515 174.509C42.1374 174.509 0 216.294 0 267.577C0 292.268 9.5767 315.44 27.1978 332.914C29.1131 334.054 32.1777 334.054 34.093 332.154ZM248.228 151.717C267.381 112.97 286.918 92.837 301.474 91.3175C301.474 91.3175 303.773 90.9376 307.986 90.5578C301.857 101.574 296.494 112.97 292.281 125.126L236.736 278.213C226.393 264.158 215.667 250.103 203.792 236.807L248.228 151.717Z" fill="#67ADD7"/>
</svg>

<svg xmlns="http://www.w3.org/2000/svg" width="538" height="450" fill="none" xmlns:v="https://vecta.io/nano"><path opacity=".1" fill-rule="evenodd" d="M34.093 332.154c1.915-1.9 1.915-4.938 0-6.837-15.706-15.575-24.516-36.468-24.516-58.88 0-45.964 37.924-83.57 84.275-83.57 16.47 0 37.54 6.458 52.098 15.954 9.193 6.078 17.62 12.536 25.282 18.994l-26.815 50.522c-13.8 23.552-31.794 30-46.734 30-18.004 0-32.56-14.435-32.56-32.29s14.557-32.29 32.56-32.29c3.065 0 6.13.76 9.194 1.52 6.512 1.52 9.96-7.598 2.68-9.117-3.83-.76-7.66-1.9-11.875-1.9-23.367 0-42.137 18.613-42.137 41.785s18.77 41.786 42.137 41.786c25.666 0 71.25-7.978 101.513-61.92 12.258 14.055 23.367 28.5 33.7 43.305l-25.665 70.656c-9.96 25.07-22.6 49.383-48.65 67.616-4.98 3.42-16.09 9.117-28.347 13.296-6.13 1.9-4.597 11.396 3.448 8.737 62.44-22.033 104.96-64.198 125.646-121.938 27.964 41.026 68.186 93.068 149.013 93.068 68.952 0 129.477-55.46 129.477-123.838 0-80.152-63.206-123.457-122.965-123.457-50.182 0-86.956 37.987-86.956 82.812 0 43.684 33.327 76.733 77.38 76.733 7.278 0 13.407-6.078 13.407-13.295 0-7.598-6.13-13.296-13.407-13.296-7.662 0-13.408 6.078-13.408 13.296 0 1.14 0 1.9.383 3.04-32.177-5.698-54.778-32.29-54.778-66.098 0-39.886 34.476-73.694 77.38-73.694 53.63 0 84.275 53.94 84.275 104.844 0 62.298-55.545 112.82-118.75 112.82-54.78 0-93.468-50.143-117.22-83.95l72.4-200.95c3.448-9.876 6.895-19.753 11.11-29.63l61.674-7.218c5.363-.38 4.597-8.357-.766-7.977-1.915.38-30.262 3.04-57.077 6.078C362 51.43 378.088 27.5 409.882 11.925c-.766 7.217 4.597 14.055 11.875 14.815s14.174-4.558 14.94-11.776S432.1.91 424.822.15c-1.915-.38-3.83 0-5.746.76C372.342 17.243 337.1 44.594 313.732 81.06c-8.044.76-13.407 1.52-13.407 1.52-25.665 2.66-68.952 16.714-96.533 74.834l-28.347 53.18c-7.66-6.458-15.706-12.535-24.516-18.613-16.09-10.637-39.073-17.474-57.077-17.474C42.137 174.51 0 216.294 0 267.577c0 24.69 9.577 47.863 27.198 65.337 1.915 1.14 4.98 1.14 6.895-.76zm214.135-180.437c19.153-38.747 38.7-58.88 53.246-60.4 0 0 2.3-.38 6.512-.76-6.13 11.016-11.492 22.412-15.705 34.568l-55.545 153.087c-10.343-14.055-21.07-28.1-32.944-41.406l44.436-85.1z" fill="#67add7"/></svg>
